X: 43137
T: Winnie Hayes'
R: jig
M: 6/8
K: Eminor
BAF ~E3|FED ~E3|BAF ~E3|FDD FGA|
BAF ~E3|FED ~E3|edB ABd|edB A^GA:|
B^cd ~e3|fed ~e3|Bee Bee|~f3 def|
~g3 ~f3|edB e2f|edB ABd|edB A^GA:|

